X:1
T:The Youngest Daughter
M:4/4
L:1/4
K:C
 B| B d d d| B G G z| A D D z| B G G| z/2 B/2| B d d d| B G G z/2 G/2|\
 A D D D| G G G||
